static/icons/play.svg

<svg width="100" height="100" viewBox="0 0 100 100" fill="none" xmlns="http://www.w3.org/2000/svg">
<path d="M50 98.6195C76.8518 98.6195 98.6195 76.8518 98.6195 50C98.6195 23.1482 76.8518 1.38048 50 1.38048C23.1482 1.38048 1.38049 23.1482 1.38049 50C1.38049 76.8518 23.1482 98.6195 50 98.6195Z" fill="#EBECE9"/>
<path d="M50 1.38048C35.0505 1.38048 20.9091 8.3165 11.6835 20.101C30.9428 1.44782 61.7172 1.9192 80.3704 21.2458C97.2728 38.6869 98.6869 65.8923 83.7374 85.0168C103.064 66.431 103.67 35.6566 85.0169 16.33C75.8586 6.70034 63.1987 1.38048 50 1.38048Z" fill="#C1C1C1"/>
<path d="M50 99.4276C22.7273 99.4276 0.572388 77.2727 0.572388 50C0.572388 22.7273 22.7273 0.572388 50 0.572388C77.2727 0.572388 99.4276 22.7273 99.4276 50C99.4276 77.2727 77.2727 99.4276 50 99.4276ZM50 2.18855C23.6027 2.18855 2.18855 23.6027 2.18855 50C2.18855 76.3973 23.6027 97.8114 50 97.8114C76.3973 97.8114 97.8114 76.3973 97.8114 50C97.8114 23.6027 76.3973 2.18855 50 2.18855Z" fill="#244583"/>
<path d="M37.8362 33.1271C39.2212 31.9425 39.4621 29.9512 38.3743 28.6793C37.2865 27.4073 35.2818 27.3365 33.8968 28.521C32.5119 29.7055 32.271 31.6969 33.3588 32.9688C34.4466 34.2408 36.4513 34.3116 37.8362 33.1271Z" fill="#EEEFEE"/>
<path d="M33.367 89.5286C33.2323 89.5286 33.0303 89.5286 32.8956 89.4613C31.2795 88.7206 29.6633 87.9125 28.1145 86.9697C27.5758 86.633 27.4411 85.9596 27.7778 85.4209C28.1145 84.9495 28.7879 84.7475 29.2593 85.0168C30.7408 85.8923 32.2222 86.7004 33.7711 87.3738C34.3098 87.6431 34.5791 88.3165 34.3771 88.8552C34.2424 89.2593 33.8384 89.5286 33.367 89.5286Z" fill="white"/>
<path d="M24.9495 84.5455C24.6801 84.5455 24.4781 84.4781 24.2761 84.3434C18.2155 79.7643 13.5017 73.569 10.6734 66.5657C10.4714 65.9596 10.7407 65.3535 11.2795 65.0842C11.8855 64.8822 12.4916 65.1515 12.7609 65.6902C15.4545 72.3569 19.899 78.1482 25.6902 82.5253C26.1616 82.9293 26.2963 83.6027 25.8923 84.0741C25.6229 84.4108 25.2862 84.5455 24.9495 84.5455Z" fill="white"/>
<path d="M73.2778 47.4019C75.2778 48.5566 75.2778 51.4434 73.2778 52.5981L40.6111 71.4582C38.6111 72.6129 36.1111 71.1695 36.1111 68.8601L36.1111 31.1399C36.1111 28.8305 38.6111 27.3871 40.6111 28.5418L73.2778 47.4019Z" fill="#9FEFDE"/>
<path d="M72.7011 47.766C74.4929 48.8152 74.5148 51.3974 72.741 52.4768C71.8747 53.0039 70.7883 53.0101 69.916 52.493L37.9611 33.5469C37.1587 33.0711 36.6667 32.2075 36.6667 31.2746C36.6667 29.2339 38.8821 27.9638 40.6431 28.995L72.7011 47.766Z" fill="#24C4A1"/>
<path d="M72.9028 48.0514C74.4028 48.9175 74.4028 51.0825 72.9028 51.9486L40.2361 70.8087C38.7361 71.6747 36.8611 70.5922 36.8611 68.8601L36.8611 31.1399C36.8611 29.4078 38.7361 28.3253 40.2361 29.1913L72.9028 48.0514Z" stroke="#244583" stroke-width="1.5"/>
</svg>

<svg xmlns="http://www.w3.org/2000/svg" width="100" height="100" fill="none" xmlns:v="https://vecta.io/nano"><path d="M50 98.62c26.852 0 48.62-21.768 48.62-48.619S76.852 1.38 50 1.38 1.38 23.148 1.38 50 23.148 98.62 50 98.62z" fill="#ebece9"/><path d="M50 1.38c-14.949 0-29.091 6.936-38.316 18.721C30.943 1.448 61.717 1.919 80.37 21.246c16.902 17.441 18.316 44.647 3.367 63.771 19.327-18.586 19.933-49.36 1.28-68.687C75.859 6.7 63.199 1.38 50 1.38z" fill="#c1c1c1"/><path d="M50 99.428C22.727 99.428.572 77.273.572 50S22.727.572 50 .572 99.428 22.727 99.428 50 77.273 99.428 50 99.428zm0-97.239C23.603 2.189 2.189 23.603 2.189 50S23.603 97.811 50 97.811 97.811 76.397 97.811 50 76.397 2.189 50 2.189z" fill="#244583"/><path d="M37.836 33.127c1.385-1.185 1.626-3.176.538-4.448s-3.093-1.343-4.477-.158-1.626 3.176-.538 4.448 3.093 1.343 4.477.158z" fill="#eeefee"/><path d="M33.367 89.529c-.135 0-.337 0-.471-.067-1.616-.741-3.232-1.549-4.781-2.492-.539-.337-.673-1.01-.337-1.549.337-.471 1.01-.673 1.482-.404 1.482.876 2.963 1.684 4.512 2.357.539.269.808.943.606 1.481-.135.404-.539.673-1.01.673zm-8.417-4.983c-.269 0-.471-.067-.673-.202a42.1 42.1 0 0 1-13.603-17.778 1.2 1.2 0 0 1 .606-1.482 1.2 1.2 0 0 1 1.481.606A39.72 39.72 0 0 0 25.69 82.525c.471.404.606 1.077.202 1.549-.269.337-.606.471-.943.471z" fill="#fff"/><path d="M73.278 47.402c2 1.155 2 4.041 0 5.196l-32.667 18.86c-2 1.155-4.5-.289-4.5-2.598V31.14c0-2.309 2.5-3.753 4.5-2.598l32.667 18.86z" fill="#9fefde"/><path d="M72.701 47.766c1.792 1.049 1.814 3.631.04 4.711-.866.527-1.953.533-2.825.016L37.961 33.547a2.64 2.64 0 0 1-1.294-2.272c0-2.041 2.215-3.311 3.976-2.28l32.058 18.771z" fill="#24c4a1"/><path d="M72.903 48.051c1.5.866 1.5 3.031 0 3.897l-32.667 18.86c-1.5.866-3.375-.216-3.375-1.949V31.14c0-1.732 1.875-2.815 3.375-1.949l32.667 18.86z" stroke="#244583" stroke-width="1.5"/></svg>
